X: 33
T: the Ladds of Dunce
T: Longways for as many as will.
%R: jig
B: Daniel Wright "Wright's Compleat Collection of Celebrated Country Dances" 1740 p.17
S: http://library.efdss.org/cgi-bin/dancebooks.cgi
Z: 2014 John Chambers <jc:trillian.mit.edu>
N: The 2nd strain has initial repeat but no final repeat; not fixed.
M: 6/4
L: 1/8
K: Dmix
% - - - - - - - - - - - - - - - - - - - - - - - - -
B2 |\
B3DD2 D2F2D2 | D2F2D2 TB4A2 | (BABc)d2 A2F2A2 | B2E2E2 E4B2 |\
B3DD2 D2F2D2 | D2E2D2  B4A2 | (BABc)d2 A2F2A2 | B2D2D2 D4  :|
|: g2 |\
Tf3ed2 d4e2 | (fef)ga2  B4A2 | (BABc)d2 A2F2A2 | B2E2E2 E4g2 |\
Tf3ed2 d4e2 | (fefg)a2 TB4A2 | (BABc)d2 A2F2A2 | B2D2D2 D4  |]
% - - - - - - - - - - - - - - - - - - - - - - - - -
%%begintext align
%% The 1st Cu. take Hands slip down between the 2d & 3d Cu.
%% foot it then lead back again and cast off .| The 2d Cu. does
%% the same :| 1st Man leads out the 2d Wo. 1st Wo. leads out the
%% 2d man at the same time & then turn your Partners .| The 1st
%% and 2d Men leads out the two We. doing the same at the same
%% Time turn your Partner as before :#: 1st Man goes back
%% to back or foot it with the 2d wo. & turn her .|. their
%% partners does the same :| 1st Cu. cross over & half figure
%% thro' the 2d .| 1st & 2d Cu. Right & Left quite round.
%%endtext
% - - - - - - - - - - - - - - - - - - - - - - - - -
%%sep 2 4 300
